X:1
T:45
T:Hugo Distler
T:Erasmus Alber (1500 – 1553)
T:45.  Arise, O Dearest Children Mine Steht auf, ihr lieben Kinderlein Matins
T:Bärenreiter
T:Bärenreiter
T:Bärenreiter
T:Bärenreiter
T:Bärenreiter
T:Bärenreiter
T:Bärenreiter
T:Bärenreiter
C:Hugo Distler
Z:Erasmus Alber
Z:(1500 – 1553)
Z:Bärenreiter
%%score [ 1 2 3 ]
L:1/8
Q:1/4=120
M:4/4
K:C
V:1 treble nm="Soprano"
V:2 treble nm="Alto"
V:3 bass nm="Baritone"
V:1
 z2 | z4 z2 D2 | D2 D2 F2 D2 | F2 G2 !breath!A2 (F2- | FGAG B2) B2 | A4 z2 A2 | A2 A2 c2 A2 | %7
w: |1. A-|rise, O dear- est|chil- dren mine, chil-|* * * * * dren|mine! The|morn- ing star in|
w: |2. We|wel- come you, O|come- ly star, come-|* * * * * ly|star. An-|nounc- ing Christ, our|
w: |3. We|wel- come you, O|day- light dear, day-|* * * * * light|dear; You|make the dark night|
w: |4. O|Je- sus Christ, we|wait for You, wait|_ _ _ _ _ for|You; Your|ho- ly Word brings|
w: |5. You|are the sun, our|on- ly star, on-|* * * * * ly|star. Who-|ev- er tru- ly|
w: |6. We|give You thanks, we|give You praise, give|_ _ _ _ _ You|praise, e-|ter- nal- ly and|
 (A2 GF G4- | G2) A2 !breath!F2 (c2- | c_B (A2 A)Bcd |[M:3/4] c3 _B) A2 |[M:4/4] F4 z4 | %12
w: beau- * * *|* ty shines, beau-||* * ty|shines!|
w: light, _ _ _|_ from far, Light|_ _ _ _ _ _ _|* * from|far,|
w: dis- * * *|* ap- pear, dis-||* * ap-|pear;|
w: light _ _ _|_ a- new, light|_ _ _ _ _ _ _|* * a-|new.|
w: shall _ _ _|_ be- lieve, shall|_ _ _ _ _ _ _|* * be-|lieve,|
w: all _ _ _|_ our days, all|_ _ _ _ _ _ _|* * our|days,|
 z2 F2 F2 A2 | G2 F2 G2 G2 |[M:9/4] !breath!A2 GG !breath!A2 GG !breath!A2 GG (A3 _B cd | %15
w: Now let it|shine, a he- ro|bright, he- ro bright, he- ro bright, he- ro bright, _ _ _|
w: who is our|Sav- ior and our|King, and our King, and our King, and our King; _ _ _|
w: en- light- en|us in heart and|mind, heart and mind, heart and mind, heart and mind, _ _ _|
w: Be with us|when the end shall|come, end shall come, end shall come, end shall come, _ _ _|
w: be- comes a|child of bles- sed-|ness, bles- sed- ness, bles- sed- ness, bles- sed- ness, _ _ _|
w: for Your great|mer- cy, which we|see, which we see, which we see, which we see, _ _ _|
[M:4/4] !breath!c6) A2 | A2 A2 A2 G2 |[M:8/4] (F3 E D2 C2 FE FG E2) E2 | %18
w: _ and|all the world share|in _ _ _ _ _ _ _ _ its|
w: _ for|which our praise to|you _ _ _ _ _ _ _ _ we|
w: _ with|your most sweet and|heav'n- * * * * * * * * ly|
w: _ and|lead us to Your|Fa- * * * * * * * * ther's|
w: _ a|Christ- ian now in|ho- * * * * * * * * li-|
w: _ both|now and for e-|ter- * * * * * * * * ni-|
[M:5/4] !breath!^F2 A2 (B3 A) G2 | A6 |] %20
w: light, share in _ its|light.|
w: sing, to you _ we|sing.|
w: shine, and heav'n- * ly|shine.|
w: home, Your Fa- * ther's|home.|
w: ness, in ho- * li-|ness.|
w: ty, e- ter- * ni-|ty.|
V:2
 z2 | z2 A,2 A,2 A,2 | (C3 B,) A,2 D2- | D2 E2 !breath!F2 (D2- | DE G4) G2 | !breath!^F2 F2 F2 F2 | %6
w: |1. A- rise, O|dear- * est chil-|* dren mine, chil-|* * * dren|mine! The morn- ing|
w: |2. We wel- come|you, _ O come-|* ly star, come-|* * * ly|star. An- nounc- ing|
w: |3. We wel- come|you, _ O day-|* light dear, day-|* * * light|dear; You make the|
w: |4. O Je- sus|Christ, _ we wait|_ for You, wait|_ _ _ for|You; Your ho- ly|
w: |5. You are the|sun, _ our on-|* ly star, on-|* * * ly|star. Who- ev- er|
w: |6. We give You|thanks, _ we give|_ You praise, give|_ _ _ You|praise, e- ter- nal-|
 A2 ^F2 (E2 DC | DE =F4 E2 | D2) E2 !breath!C2 (C2- | CD (F2 F)DFG |[M:3/4] A4) F2 | %11
w: star in beau- * *||* ty shines, beau-||* ty|
w: Christ, our light, _ _|_ _ _ _|* from far, Light|_ _ _ _ _ _ _|* from|
w: dark night dis- * *||* ap- pear, dis-||* ap-|
w: Word brings light _ _|_ _ _ _|* a- new, light|_ _ _ _ _ _ _|* a-|
w: tru- ly shall _ _|_ _ _ _|* be- lieve, shall|_ _ _ _ _ _ _|* be-|
w: ly and all _ _|_ _ _ _|* our days, all|_ _ _ _ _ _ _|* our|
[M:4/4] !breath!C2 C2 C2 E2 | (D3 C DE F2) | F2 (F3 E) D2 | %14
w: shines! Now let it|shine, _ _ _ _|a he- * ro|
w: far, who is our|Sav- * * * *|ior and _ our|
w: pear; en- light- en|us _ _ _ _|in heart _ and|
w: new. Be with us|when _ _ _ _|the end _ shall|
w: lieve, be- comes a|child _ _ _ _|of bles- * sed-|
w: days, for Your great|mer- * * * *|cy, which _ we|
[M:9/4] !breath!C4 DF !breath!C2 DF !breath!C2 D4 F2 |[M:4/4] !breath!F2 F2 F4 | F4 E2 D2 | %17
w: bright, he- ro bright, he- ro bright, he- ro|bright, and all|the world share|
w: King, and our King, and our King, and our|King; for which|our praise to|
w: mind, heart and mind, heart and mind, heart and|mind, with your|most sweet and|
w: come, end shall come, end shall come, end shall|come, and lead|us to Your|
w: ness, bles- sed- ness, bles- sed- ness, bles- sed-|ness, a Christ-|ian now in|
w: see, which we see, which we see, which we|see, both now|and for e-|
[M:8/4] (C3 _B, A,3 B, C2 D4) ^C2 |[M:5/4] !breath!D2 ^F2 (G3 F) E2 | ^F6 |] %20
w: in _ _ _ _ _ its|light, share in _ its|light.|
w: you _ _ _ _ _ we|sing, to you _ we|sing.|
w: heav'n- * * * * * ly|shine, and heav'n- * ly|shine.|
w: Fa- * * * * * ther's|home, Your Fa- * ther's|home.|
w: ho- * * * * * li-|ness, in ho- * li-|ness.|
w: ter- * * * * * ni-|ty, e- ter- * ni-|ty.|
V:3
 D,2 | D,2 D,2 F,2 D,2 | (G,4 F,3 E, | D,2) C,2 D,4- | D,8- | D,4 z4 | z4 z2 A,2 | A,2 A,2 C2 A,2 | %8
w: 1. A-|rise, O dear- est|chil- * *|* dren mine,|_||The|morn- ing star in|
w: 2. We|wel- come you, O|come- * *|* ly star,|_||An-|nounc- ing Christ, our|
w: 3. We|wel- come you, O|day- * *|* light dear,|_||You|make the dark night|
w: 4. O|Je- sus Christ, we|wait _ _|_ for You;|_||Your|ho- ly Word brings|
w: 5. You|are the sun, our|on- * *|* ly star.|_||Who-|ev- er tru- ly|
w: 6. We|give You thanks, we|give _ _|_ You praise,|_||e-|ter- nal- ly and|
 _B,2 C2 A,4- | A,8- |[M:3/4] A,6- |[M:4/4] A,4 z2 G,2 | G,2 _B,2 A,4 | C2 A,4 C2 | %14
w: beau- ty shines,|_||* Now|let it shine,|a he- ro|
w: light, from far,|_||* who|is our Sav-|ior and our|
w: dis- ap- pear,|_||* en-|light- en us|in heart and|
w: light a- new.|_||* Be|with us when|the end shall|
w: shall be- lieve,|_||* be-|comes a child|of bles- sed-|
w: all our days,|_||* for|Your great mer-|cy, which we|
[M:9/4] F,8- F,4- F,6- |[M:4/4] F,6 z2 | z2 C2 C2 C2 |[M:8/4] A,2 C2 (F,4 G,2 A,4) A,2 | %18
w: bright, _ _|_|and all the|world share in _ _ its|
w: King, _ _|_|for which our|praise to you _ _ we|
w: mind, _ _|_|with your most|sweet and heav'n- * * ly|
w: come, _ _|_|and lead us|to Your Fa- * * ther's|
w: ness, _ _|_|a Christ- ian|now in ho- * * li-|
w: see, _ _|_|both now and|for e- ter- * * ni-|
[M:5/4] D,4- D,6- | D,6 |] %20
w: light. _|_|
w: sing. _|_|
w: shine. _|_|
w: home. _|_|
w: ness. _|_|
w: ty. _|_|

